src/actions/24/edit-text-frame-update.svg

<svg xmlns="http://www.w3.org/2000/svg" viewBox="0 0 24 24">
    <path d="M10 4v1h8v10h-4v4H6V9H5v11h10v-.01l.008.01L19 16.008V4h-9zm0 3v1h6V7h-6zm-2 3v1h8v-1H8zm0 3v1h8v-1H8zm0 3v1h4v-1H8z" style="fill:currentColor;fill-opacity:1;stroke:none;color:#050505;opacity:.7"/>
    <path d="m5 4 2 3 2-3H5z" style="fill:currentColor;fill-opacity:1;stroke:none;color:#a0b6cb"/>
</svg>

<svg xmlns="http://www.w3.org/2000/svg" viewBox="0 0 24 24">
  <defs id="defs3051">
    <style type="text/css" id="current-color-scheme">
      .ColorScheme-Text {
        color:#363636;
      }
      .ColorScheme-Highlight {
        color:#3daee9;
      }
      </style>
  </defs>
 <path 
     style="fill:currentColor;fill-opacity:1;stroke:none" 
     d="M 10 4 L 10 5 L 18 5 L 18 15 L 14 15 L 14 16 L 14 19 L 6 19 L 6 9 L 5 9 L 5 20 L 6 20 L 14 20 L 15 20 L 15 19.990234 L 15.007812 20 L 19 16.007812 L 19 16 L 19 14.59375 L 19 4 L 18 4 L 10 4 z M 10 7 L 10 8 L 16 8 L 16 7 L 10 7 z M 8 10 L 8 11 L 16 11 L 16 10 L 8 10 z M 8 13 L 8 14 L 16 14 L 16 13 L 8 13 z M 8 16 L 8 17 L 12 17 L 12 16 L 8 16 z "
     class="ColorScheme-Text"
     />
 <path 
     style="fill:currentColor;fill-opacity:1;stroke:none" 
     d="M 5 4 L 7 7 L 9 4 L 5 4 z "
     class="ColorScheme-Highlight"
     />
</svg>
